X: 763
T: Nell Flaherty's Drake.
T: The Widow's Curse.
C:F. O'Neill.
B:O'Neill's Music of Ireland
N:O'Neill's - 763
Z:Transcribed by Stephen Foy (shf@access.digex.net)
Z:abc 1.6
M:6/8
R:Jig
K:G
(D|G)AB AGE|DEG GBd|efg dBG|{c}BAA A2 (D|\
G)AB AGE|DEG GBd|efg dBA|BGG G2:|
||B|def {a}gfg|afd edB|gfg edB|{c}BAA A2 (D|\
G)AB AGE|DEG GBd|efg dBA|BGG G2:|


